X: 8997
T: Cyril Flynn's
R: polka
M: 2/4
K: Dmajor
|:fA AB|{c}BA G2|AB BA|de fd|
fA AB|{c}BA G2|AB BA|d2 de:|
|:fd de|fg af/a/|ge ed|cd eg|
fd de|fg af/a/|ge ce|d2 de:|

